src/collections/integrations/consul/icon/color/consul-color.svg

<?xml version="1.0" encoding="UTF-8"?>
<!DOCTYPE svg>
<svg width="20" height="20" viewBox="0 0 20 20" fill="none" xmlns="http://www.w3.org/2000/svg">
    <g clip-path="url(#clip0_33_35)">
        <path fill-rule="evenodd" clip-rule="evenodd"
            d="M9.62579 12.1144C8.45509 12.1144 7.54449 11.1749 7.54449 9.9669C7.54449 8.7588 8.45509 7.8192 9.62579 7.8192C10.7965 7.8192 11.7071 8.7588 11.7071 9.9669C11.7071 11.1749 10.7965 12.1144 9.62579 12.1144Z"
            fill="#e03875" />
        <path fill-rule="evenodd" clip-rule="evenodd"
            d="M13.6907 10.9736C13.1705 10.9736 12.7151 10.5372 12.7151 9.9669C12.7151 9.4298 13.1378 8.9601 13.6907 8.9601C14.2109 8.9601 14.6664 9.3964 14.6664 9.9669C14.6664 10.5372 14.211 10.9734 13.6907 10.9734V10.9736ZM17.203 11.9128C17.0729 12.4495 16.5524 12.7512 16.0321 12.617C15.5119 12.4828 15.2191 11.9461 15.3492 11.4093C15.4793 10.8726 15.9995 10.5699 16.5199 10.7041C17.0069 10.8382 17.3325 11.3079 17.2347 11.8452C17.2347 11.8452 17.2347 11.8785 17.2024 11.912L17.203 11.9128ZM16.519 9.3617C15.9984 9.4958 15.4781 9.1602 15.3481 8.6232C15.218 8.0865 15.5431 7.5494 16.0635 7.4152C16.5837 7.281 17.104 7.6166 17.2341 8.1537C17.2666 8.2879 17.2666 8.422 17.2341 8.5562C17.2016 8.9255 16.9413 9.2609 16.5186 9.3617H16.519ZM19.9654 11.7776C19.8675 12.3144 19.3797 12.6837 18.8595 12.5831C18.3393 12.4823 17.9814 11.979 18.0792 11.4421C18.1766 10.9053 18.6644 10.536 19.1847 10.6366C19.6726 10.7373 20.0305 11.2071 19.998 11.7105C19.9657 11.744 19.9657 11.744 19.9657 11.7776H19.9654ZM19.1865 9.2956C18.6663 9.3964 18.1784 9.0273 18.0809 8.4903C17.9833 7.9536 18.341 7.45 18.8614 7.3494C19.3816 7.2488 19.8695 7.6178 19.967 8.1548C19.967 8.2554 19.9996 8.3225 19.967 8.4231C19.9345 8.8594 19.6093 9.2286 19.1865 9.2956ZM18.5036 15.2351C18.2435 15.7049 17.6581 15.8728 17.2028 15.6042C16.7476 15.3358 16.5849 14.7317 16.8452 14.262C17.1053 13.7922 17.6906 13.6243 18.1459 13.8929C18.4712 14.0942 18.6661 14.4633 18.6337 14.8325C18.6012 14.9667 18.5686 15.1008 18.5036 15.235V15.2351ZM18.1459 6.108C17.6906 6.3764 17.1053 6.2086 16.8452 5.7387C16.5851 5.2689 16.7476 4.6649 17.2028 4.3965C17.6581 4.1281 18.2434 4.2958 18.5036 4.7657C18.6012 4.9669 18.6337 5.1347 18.6337 5.336C18.6012 5.6381 18.4386 5.94 18.1459 6.1078"
            fill="#e03875" />
        <path
            d="M9.6583 20C7.0567 20 4.6503 18.9598 2.7967 17.0807C1.00811 15.1677 0 12.6503 0 9.9998C0 7.3149 1.00811 4.8319 2.82914 2.91891C4.6503 1.04024 7.0892 0 9.6583 0C11.8045 0 13.8533 0.70455 15.5443 2.04719L14.3415 3.65759C12.9756 2.58457 11.3495 2.014 9.6589 2.014C7.6102 2.014 5.659 2.85294 4.1956 4.3629C2.73288 5.873 1.9523 7.8529 1.9523 10.0003C1.9523 12.1144 2.76525 14.1278 4.2286 15.6378C5.692 17.1478 7.6108 17.9531 9.692 17.9531C11.4155 17.9531 13.0415 17.3827 14.3746 16.3089L15.5454 17.9192C13.8545 19.2611 11.8058 19.9996 9.6594 19.9996L9.6583 20Z"
            fill="#e03875" />
    </g>
    <defs>
        <clipPath id="clip0_33_35">
            <rect width="20" height="20" fill="white" />
        </clipPath>
    </defs>
</svg>

<svg width="20" height="20" viewBox="0 0 20 20" fill="none" xmlns="http://www.w3.org/2000/svg"><g clip-path="url(#a)" fill="#e03875"><path fill-rule="evenodd" clip-rule="evenodd" d="M9.626 12.114c-1.17 0-2.082-.94-2.082-2.147 0-1.208.911-2.148 2.082-2.148 1.17 0 2.081.94 2.081 2.148 0 1.208-.91 2.147-2.081 2.147Zm4.064-1.14a.994.994 0 0 1-.975-1.007c0-.537.423-1.007.976-1.007.52 0 .975.436.975 1.007a.994.994 0 0 1-.975 1.006Zm3.513.939a.947.947 0 0 1-1.17.704c-.521-.134-.814-.67-.684-1.208a.948.948 0 0 1 1.17-.705.985.985 0 0 1 .716 1.141s0 .034-.033.067h.001Zm-.684-2.551c-.52.134-1.04-.202-1.17-.739a1.002 1.002 0 0 1 .715-1.208c.52-.134 1.04.202 1.17.739a.843.843 0 0 1 0 .402.91.91 0 0 1-.715.806Zm3.446 2.416c-.098.536-.585.906-1.105.805a.984.984 0 0 1-.78-1.14c.097-.538.584-.907 1.105-.806.488.1.846.57.813 1.073-.032.034-.032.034-.032.068Zm-.779-2.482c-.52.1-1.008-.269-1.105-.806a.984.984 0 0 1 .78-1.14c.52-.101 1.008.268 1.106.805 0 .1.033.168 0 .268a.951.951 0 0 1-.78.873Zm-.682 5.94a.941.941 0 0 1-1.301.368 1.005 1.005 0 0 1-.358-1.342.941.941 0 0 1 1.3-.37c.326.202.521.571.489.94a1.934 1.934 0 0 1-.13.403Zm-.358-9.128a.941.941 0 0 1-1.3-.37 1.005 1.005 0 0 1 .357-1.342.941.941 0 0 1 1.3.37c.098.2.13.369.13.57a1.007 1.007 0 0 1-.487.772"/><path d="M9.658 20c-2.601 0-5.008-1.04-6.861-2.92A10.35 10.35 0 0 1 0 10c0-2.685 1.008-5.168 2.83-7.081C4.65 1.04 7.09 0 9.657 0a9.4 9.4 0 0 1 5.886 2.047l-1.203 1.61c-1.364-1.071-2.99-1.642-4.68-1.642-2.049 0-4 .839-5.463 2.349C2.733 5.873 1.952 7.853 1.952 10a8.08 8.08 0 0 0 2.277 5.638 7.5 7.5 0 0 0 5.463 2.315 7.4 7.4 0 0 0 4.683-1.644l1.17 1.61C13.855 19.261 11.805 20 9.66 20Z"/></g><defs><clipPath id="a"><path fill="#fff" d="M0 0h20v20H0z"/></clipPath></defs></svg>
